vectors/telegram/telegram.svg

<svg version="1.1" xmlns="http://www.w3.org/2000/svg" xmlns:xlink="http://www.w3.org/1999/xlink" viewBox="0 0 256 256">
		<g>
				<path d="M128,0 C57.307,0 0,57.307 0,128 L0,128 C0,198.693 57.307,256 128,256 L128,256 C198.693,256 256,198.693 256,128 L256,128 C256,57.307 198.693,0 128,0 L128,0 Z" fill="#40B3E0" />
				<path d="M190.2826,73.6308 L167.4206,188.8978 C167.4206,188.8978 164.2236,196.8918 155.4306,193.0548 L102.6726,152.6068 L83.4886,143.3348 L51.1946,132.4628 C51.1946,132.4628 46.2386,130.7048 45.7586,126.8678 C45.2796,123.0308 51.3546,120.9528 51.3546,120.9528 L179.7306,70.5928 C179.7306,70.5928 190.2826,65.9568 190.2826,73.6308" fill="#FFFFFF" />
				<path d="M98.6178,187.6035 C98.6178,187.6035 97.0778,187.4595 95.1588,181.3835 C93.2408,175.3085 83.4888,143.3345 83.4888,143.3345 L161.0258,94.0945 C161.0258,94.0945 165.5028,91.3765 165.3428,94.0945 C165.3428,94.0945 166.1418,94.5735 163.7438,96.8115 C161.3458,99.0505 102.8328,151.6475 102.8328,151.6475" fill="#D2E5F1" />
				<path d="M122.9015,168.1154 L102.0335,187.1414 C102.0335,187.1414 100.4025,188.3794 98.6175,187.6034 L102.6135,152.2624" fill="#B5CFE4" />
		</g>
</svg>

<svg xmlns="http://www.w3.org/2000/svg" viewBox="0 0 256 256"><path d="M128 0C57.307 0 0 57.307 0 128s57.307 128 128 128 128-57.307 128-128S198.693 0 128 0z" fill="#40B3E0"/><path d="M190.283 73.63L167.42 188.899s-3.197 7.994-11.99 4.157l-52.758-40.448-19.184-9.272-32.294-10.872s-4.956-1.758-5.436-5.595c-.48-3.837 5.596-5.915 5.596-5.915l128.376-50.36s10.552-4.636 10.552 3.038" fill="#FFF"/><path d="M98.618 187.603s-1.54-.144-3.46-6.22c-1.917-6.075-11.67-38.049-11.67-38.049l77.538-49.24s4.477-2.718 4.317 0c0 0 .799.48-1.6 2.718-2.397 2.239-60.91 54.836-60.91 54.836" fill="#D2E5F1"/><path d="M122.901 168.115l-20.867 19.026s-1.632 1.238-3.416.462l3.996-35.34" fill="#B5CFE4"/></svg>
